(G-CODE GENERATED BY FLATCAM v8.994 - www.flatcam.org - Version Date: 2020/11/7)

(Name: minions-Edge_Cuts.gbr_cutout_cnc)
(Type: G-code from Geometry)
(Units: MM)

(Created on Saturday, 30 August 2025 at 14:54)

(This preprocessor is used with a motion controller loaded with GRBL firmware. )
(It is for the case when it is used together with a LASER connected on the SPINDLE connector.)

(Feedrate: 120.0 mm/min)
(Feedrate rapids: 1500.0 mm/min)

(Z Focus: 2.0 mm)
(Steps per circle: 64)
(Preprocessor Geometry: GRBL_laser)

(X range:  101.7000 ...  206.6000  mm)
(Y range: -163.7500 ...  -61.8500  mm)

(Laser Power - Spindle Speed: 5000.0)

G21
G90
G17
G94

G01 F120.00

M5
G01 F120.00
G00 X101.7000 Y-108.9500
G01 F60.00
M03 S5000.0
G01 F120.00
G01 X101.7000 Y-63.2000 F120.00
G01 X101.7065 Y-63.0677 F120.00
G01 X101.7259 Y-62.9366 F120.00
G01 X101.7581 Y-62.8081 F120.00
G01 X101.8027 Y-62.6834 F120.00
G01 X101.8594 Y-62.5636 F120.00
G01 X101.9275 Y-62.4500 F120.00
G01 X102.0064 Y-62.3435 F120.00
G01 X102.0954 Y-62.2454 F120.00
G01 X102.1935 Y-62.1564 F120.00
G01 X102.3000 Y-62.0775 F120.00
G01 X102.4136 Y-62.0094 F120.00
G01 X102.5334 Y-61.9527 F120.00
G01 X102.6581 Y-61.9081 F120.00
G01 X102.7866 Y-61.8759 F120.00
G01 X102.9177 Y-61.8565 F120.00
G01 X103.0500 Y-61.8500 F120.00
G01 X150.5000 Y-61.8500 F120.00
M5
G00 X158.0000 Y-61.8500
G01 F60.00
M03 S5000.0
G01 F120.00
G01 X205.2500 Y-61.8500 F120.00
G01 X205.3823 Y-61.8565 F120.00
G01 X205.5134 Y-61.8759 F120.00
G01 X205.6419 Y-61.9081 F120.00
G01 X205.7666 Y-61.9527 F120.00
G01 X205.8864 Y-62.0094 F120.00
G01 X206.0000 Y-62.0775 F120.00
G01 X206.1065 Y-62.1564 F120.00
G01 X206.2046 Y-62.2454 F120.00
G01 X206.2936 Y-62.3435 F120.00
G01 X206.3725 Y-62.4500 F120.00
G01 X206.4406 Y-62.5636 F120.00
G01 X206.4973 Y-62.6834 F120.00
G01 X206.5419 Y-62.8081 F120.00
G01 X206.5741 Y-62.9366 F120.00
G01 X206.5935 Y-63.0677 F120.00
G01 X206.6000 Y-63.2000 F120.00
G01 X206.6000 Y-108.9500 F120.00
M5
G00 X206.6000 Y-116.4500
G01 F60.00
M03 S5000.0
G01 F120.00
G01 X206.6000 Y-162.4000 F120.00
G01 X206.5935 Y-162.5323 F120.00
G01 X206.5741 Y-162.6634 F120.00
G01 X206.5419 Y-162.7919 F120.00
G01 X206.4973 Y-162.9166 F120.00
G01 X206.4406 Y-163.0364 F120.00
G01 X206.3725 Y-163.1500 F120.00
G01 X206.2936 Y-163.2565 F120.00
G01 X206.2046 Y-163.3546 F120.00
G01 X206.1065 Y-163.4436 F120.00
G01 X206.0000 Y-163.5225 F120.00
G01 X205.8864 Y-163.5906 F120.00
G01 X205.7666 Y-163.6473 F120.00
G01 X205.6419 Y-163.6919 F120.00
G01 X205.5134 Y-163.7241 F120.00
G01 X205.3823 Y-163.7435 F120.00
G01 X205.2500 Y-163.7500 F120.00
G01 X158.0000 Y-163.7500 F120.00
M5
G00 X150.5000 Y-163.7500
G01 F60.00
M03 S5000.0
G01 F120.00
G01 X103.0500 Y-163.7500 F120.00
G01 X102.9177 Y-163.7435 F120.00
G01 X102.7866 Y-163.7241 F120.00
G01 X102.6581 Y-163.6919 F120.00
G01 X102.5334 Y-163.6473 F120.00
G01 X102.4136 Y-163.5906 F120.00
G01 X102.3000 Y-163.5225 F120.00
G01 X102.1935 Y-163.4436 F120.00
G01 X102.0954 Y-163.3546 F120.00
G01 X102.0064 Y-163.2565 F120.00
G01 X101.9275 Y-163.1500 F120.00
G01 X101.8594 Y-163.0364 F120.00
G01 X101.8027 Y-162.9166 F120.00
G01 X101.7581 Y-162.7919 F120.00
G01 X101.7259 Y-162.6634 F120.00
G01 X101.7065 Y-162.5323 F120.00
G01 X101.7000 Y-162.4000 F120.00
G01 X101.7000 Y-116.4500 F120.00
M5
M5
M5
G00 Z15.00


